app/assets/v2/images/results/monthly-active-users.svg

<svg fill="none" height="215" viewBox="0 0 215 215" width="215" xmlns="http://www.w3.org/2000/svg"><path d="m84.1528 98.0818 33.9412 33.9412-7.778 7.778-33.9413-33.941z" fill="#bbafd0" fill-opacity=".75"/><path clip-rule="evenodd" d="m118.997 96.9488c-1.762-4.3353-.884-9.4922 2.632-13.0091 4.687-4.6863 12.285-4.6863 16.971 0 3.653 3.6534 4.459 9.0764 2.416 13.5099-6.266 5.6894-15.954 5.5224-22.019-.5008z" fill="#00ed92" fill-rule="evenodd"/><path d="m44.6496 101.505 1.4142-1.415c13.1637-13.1632 30.8867-20.7588 49.4975-21.2127l-19.0919 19.0919c-1.8157 1.8156-4.2602 2.8638-6.8272 2.9258z" fill="#00ed92"/><path d="m114.714 171.862 1.414-1.414c13.164-13.164 20.759-30.887 21.213-49.498l-19.092 19.092c-1.815 1.816-2.863 4.26-2.926 6.827z" fill="#00ed92"/><g clip-rule="evenodd" fill-rule="evenodd"><path d="m76.3743 126.366c1.5621 1.562 1.5621 4.095 0 5.657l-14.8492 14.849c-1.5621 1.562-4.0948 1.562-5.6569 0s-1.5621-4.095 0-5.657l14.8493-14.849c1.5621-1.562 4.0947-1.562 5.6568 0zm-24.3951 24.395c1.5621 1.562 1.5621 4.095 0 5.657l-1.0607 1.061c-1.5621 1.562-4.0948 1.562-5.6569 0s-1.5621-4.095 0-5.657l1.0607-1.061c1.5621-1.562 4.0948-1.562 5.6569 0z" fill="#bbafd0"/><path d="m89.8095 139.801c1.5621 1.562 1.5621 4.095 0 5.657l-27.5464 27.546c-1.5621 1.562-4.0947 1.562-5.6568 0s-1.5621-4.094 0-5.656l27.5464-27.547c1.5621-1.562 4.0947-1.562 5.6568 0zm-40.6637 40.664c1.5621 1.562 1.5621 4.095 0 5.657l-4.5911 4.591c-1.5621 1.562-4.0948 1.562-5.6568 0-1.5621-1.562-1.5621-4.095 0-5.657l4.591-4.591c1.5621-1.562 4.0948-1.562 5.6569 0z" fill="#bbafd0"/><path d="m103.554 79.2195c.051-1.174-.157-2.3676-.64-3.4936-1.288-3.0067-4.2775-4.926-7.5478-4.8462-20.6644.504-40.343 8.9377-54.9593 23.5539l-1.4142 1.4142c-2.3131 2.3131-2.9849 5.8012-1.6963 8.8082s4.278 4.926 7.5483 4.846l24.9925-.609c1.3916-.034 2.7633-.229 4.09-.574zm-33.9118 21.6755-24.9926.61 1.4142-1.415c2.4713-2.4708 5.1032-4.7458 7.8715-6.8142 8.557-6.3933 18.4171-10.8122 28.863-12.9493 3.0218-.6182 6.0926-1.0454 9.1951-1.2743 1.185-.0874 2.3746-.1458 3.5679-.1749l-19.0919 19.0919c-1.8157 1.8156-4.2602 2.8638-6.8272 2.9258z" fill="#180041"/><path d="m107.619 143.846c-.171.928-.27 1.873-.293 2.828l-.61 24.993c-.079 3.27 1.84 6.259 4.847 7.548 3.006 1.289 6.495.617 8.808-1.696l1.414-1.415c14.616-14.616 23.05-34.294 23.554-54.959.08-3.27-1.84-6.259-4.846-7.548-.956-.409-1.96-.621-2.959-.645zm7.704 3.023-.609 24.993 1.414-1.414c2.471-2.472 4.746-5.104 6.815-7.872 6.393-8.557 10.812-18.417 12.949-28.863.854-4.176 1.344-8.445 1.449-12.763l-19.092 19.092c-1.815 1.816-2.863 4.26-2.926 6.827z" fill="#180041"/><path d="m121.431 136.153-42.7798-42.78 4.2426-4.2426 42.7802 42.7796z" fill="#180041"/><path d="m170.723 53.1976c-3.754 19.6986-13.343 37.8137-27.522 51.9934l-29.901 29.901c-1.562 1.562-4.095 1.562-5.657 0l-26.8702-26.87c-1.5621-1.562-1.5621-4.095 0-5.657l28.9412-28.9411c14.744-14.7444 33.728-24.5102 54.295-27.9327.044-.0073.087-.0145.131-.0217l5.451-.8997c1.372-.2265 2.551.9817 2.29 2.3476zm-95.6071 43.7107 28.9411-28.9412c15.958-15.9577 36.514-26.5157 58.78-30.1908l5.451-.8997c6.86-1.1323 12.753 4.9084 11.452 11.7382l-1.159 6.0802c-4.053 21.2744-14.409 40.8388-29.723 56.153l-29.901 29.901c-4.687 4.686-12.285 4.686-16.971 0l-26.8701-26.87c-4.6863-4.686-4.6863-12.284 0-16.9707z" fill="#180041"/><path d="m121.276 94.1927c4.881 4.8816 12.796 4.8816 17.678 0 4.881-4.8816 4.881-12.7961 0-17.6777-4.882-4.8815-12.797-4.8815-17.678 0-4.882 4.8816-4.882 12.7961 0 17.6777zm-4.243 4.2426c7.225 7.2247 18.939 7.2247 26.163 0 7.225-7.2247 7.225-18.9382 0-26.1629-7.224-7.2247-18.938-7.2247-26.163 0-7.224 7.2247-7.224 18.9382 0 26.1629z" fill="#180041"/></g></svg>

<svg width="215" height="215" viewBox="0 0 215 215" fill="none" xmlns="http://www.w3.org/2000/svg">
<path d="M84.1528 98.0818L118.094 132.023L110.316 139.801L76.3747 105.86L84.1528 98.0818Z" fill="#BBAFD0" fill-opacity="0.75"/>
<path fill-rule="evenodd" clip-rule="evenodd" d="M118.997 96.9488C117.235 92.6135 118.113 87.4566 121.629 83.9397C126.316 79.2534 133.914 79.2534 138.6 83.9397C142.253 87.5931 143.059 93.0161 141.016 97.4496C134.75 103.139 125.062 102.972 118.997 96.9488Z" fill="#00ED92"/>
<path d="M44.6496 101.505L46.0638 100.09C59.2275 86.9268 76.9505 79.3312 95.5613 78.8773L76.4694 97.9692C74.6537 99.7848 72.2092 100.833 69.6422 100.895L44.6496 101.505Z" fill="#00ED92"/>
<path d="M114.714 171.862L116.128 170.448C129.292 157.284 136.887 139.561 137.341 120.95L118.249 140.042C116.434 141.858 115.386 144.302 115.323 146.869L114.714 171.862Z" fill="#00ED92"/>
<path fill-rule="evenodd" clip-rule="evenodd" d="M76.3743 126.366C77.9364 127.928 77.9364 130.461 76.3743 132.023L61.5251 146.872C59.963 148.434 57.4303 148.434 55.8682 146.872C54.3061 145.31 54.3061 142.777 55.8682 141.215L70.7175 126.366C72.2796 124.804 74.8122 124.804 76.3743 126.366ZM51.9792 150.761C53.5413 152.323 53.5413 154.856 51.9792 156.418L50.9185 157.479C49.3564 159.041 46.8237 159.041 45.2616 157.479C43.6995 155.917 43.6995 153.384 45.2616 151.822L46.3223 150.761C47.8844 149.199 50.4171 149.199 51.9792 150.761Z" fill="#BBAFD0"/>
<path fill-rule="evenodd" clip-rule="evenodd" d="M89.8095 139.801C91.3716 141.363 91.3716 143.896 89.8095 145.458L62.2631 173.004C60.701 174.566 58.1684 174.566 56.6063 173.004C55.0442 171.442 55.0442 168.91 56.6063 167.348L84.1527 139.801C85.7148 138.239 88.2474 138.239 89.8095 139.801ZM49.1458 180.465C50.7079 182.027 50.7079 184.56 49.1458 186.122L44.5547 190.713C42.9926 192.275 40.4599 192.275 38.8979 190.713C37.3358 189.151 37.3358 186.618 38.8979 185.056L43.4889 180.465C45.051 178.903 47.5837 178.903 49.1458 180.465Z" fill="#BBAFD0"/>
<path fill-rule="evenodd" clip-rule="evenodd" d="M103.554 79.2195C103.605 78.0455 103.397 76.8519 102.914 75.7259C101.626 72.7192 98.6365 70.7999 95.3662 70.8797C74.7018 71.3837 55.0232 79.8174 40.4069 94.4336L38.9927 95.8478C36.6796 98.1609 36.0078 101.649 37.2964 104.656C38.585 107.663 41.5744 109.582 44.8447 109.502L69.8372 108.893C71.2288 108.859 72.6005 108.664 73.9272 108.319L103.554 79.2195ZM69.6422 100.895L44.6496 101.505L46.0638 100.09C48.5351 97.6192 51.167 95.3442 53.9353 93.2758C62.4923 86.8825 72.3524 82.4636 82.7983 80.3265C85.8201 79.7083 88.8909 79.2811 91.9934 79.0522C93.1784 78.9648 94.368 78.9064 95.5613 78.8773L76.4694 97.9692C74.6537 99.7848 72.2092 100.833 69.6422 100.895Z" fill="#180041"/>
<path fill-rule="evenodd" clip-rule="evenodd" d="M107.619 143.846C107.448 144.774 107.349 145.719 107.326 146.674L106.716 171.667C106.637 174.937 108.556 177.926 111.563 179.215C114.569 180.504 118.058 179.832 120.371 177.519L121.785 176.104C136.401 161.488 144.835 141.81 145.339 121.145C145.419 117.875 143.499 114.886 140.493 113.597C139.537 113.188 138.533 112.976 137.534 112.952L107.619 143.846ZM115.323 146.869L114.714 171.862L116.128 170.448C118.599 167.976 120.874 165.344 122.943 162.576C129.336 154.019 133.755 144.159 135.892 133.713C136.746 129.537 137.236 125.268 137.341 120.95L118.249 140.042C116.434 141.858 115.386 144.302 115.323 146.869Z" fill="#180041"/>
<path fill-rule="evenodd" clip-rule="evenodd" d="M121.431 136.153L78.6512 93.373L82.8938 89.1304L125.674 131.91L121.431 136.153Z" fill="#180041"/>
<path fill-rule="evenodd" clip-rule="evenodd" d="M170.723 53.1976C166.969 72.8962 157.38 91.0113 143.201 105.191L113.3 135.092C111.738 136.654 109.205 136.654 107.643 135.092L80.7728 108.222C79.2107 106.66 79.2107 104.127 80.7728 102.565L109.714 73.6239C124.458 58.8795 143.442 49.1137 164.009 45.6912C164.053 45.6839 164.096 45.6767 164.14 45.6695L169.591 44.7698C170.963 44.5433 172.142 45.7515 171.881 47.1174L170.723 53.1976ZM75.1159 96.9083L104.057 67.9671C120.015 52.0094 140.571 41.4514 162.837 37.7763L168.288 36.8766C175.148 35.7443 181.041 41.785 179.74 48.6148L178.581 54.695C174.528 75.9694 164.172 95.5338 148.858 110.848L118.957 140.749C114.27 145.435 106.672 145.435 101.986 140.749L75.1159 113.879C70.4296 109.193 70.4296 101.595 75.1159 96.9083Z" fill="#180041"/>
<path fill-rule="evenodd" clip-rule="evenodd" d="M121.276 94.1927C126.157 99.0743 134.072 99.0743 138.954 94.1927C143.835 89.3111 143.835 81.3966 138.954 76.515C134.072 71.6335 126.157 71.6335 121.276 76.515C116.394 81.3966 116.394 89.3111 121.276 94.1927ZM117.033 98.4353C124.258 105.66 135.972 105.66 143.196 98.4353C150.421 91.2106 150.421 79.4971 143.196 72.2724C135.972 65.0477 124.258 65.0477 117.033 72.2724C109.809 79.4971 109.809 91.2106 117.033 98.4353Z" fill="#180041"/>
</svg>
